flags/it-42.svg

<svg xmlns="http://www.w3.org/2000/svg" width="512" height="512" fill="none"><path fill="var(--flag-palette-bright-red, #d80027)" d="M136 512V0h240v512z"/><path fill="var(--flag-palette-light-blue, #338af3)" d="M344 512V0h168v512z"/><path fill="var(--flag-palette-green, #6da544)" d="M0 512V0h168v512z"/><path fill="var(--flag-palette-white, #eeeeee)" d="M256 144c44.2 0 80 17.9 80 40v88H176v-88c0-22.1 35.8-40 80-40"/><path fill="var(--flag-palette-mid-grey-3, #acabb1)" fill-rule="evenodd" d="M230.5 192.1c-.3.4-9.6-1.2-10-1-.5.3-3.5 9-4 9s-3.7-8.9-4.1-9.2-9.5 1.6-9.8 1.2c-.2-.4 6-7.7 6-8.2s-6.2-7.5-6-7.9 9.6 1.3 10 1c.5-.2 3.5-9 4-9s3.7 9 4.1 9.2 9.5-1.6 9.8-1.2c.2.5-5.9 7.7-5.9 8.2s6.1 7.5 5.9 8zm80.5 0c-.3.4-9.7-1.2-10.1-1-.4.3-3.4 9-3.9 9s-3.7-8.9-4.2-9.2-9.5 1.6-9.7 1.2c-.3-.4 5.9-7.7 5.9-8.2s-6.2-7.5-6-7.9 9.7 1.3 10.1 1c.5-.2 3.4-9 4-9 .4 0 3.6 9 4 9.2.5.2 9.6-1.6 9.8-1.2s-5.9 7.7-5.9 8.2 6.2 7.5 6 8zm0 62.2c-.3.4-9.7-1.3-10.1-1-.4.2-3.4 9-3.9 9s-3.7-9-4.2-9.2-9.5 1.6-9.7 1.2c-.3-.5 5.9-7.7 5.9-8.2s-6.2-7.5-6-8c.3-.3 9.7 1.3 10.1 1 .5-.2 3.4-9 4-9 .4 0 3.6 9 4 9.3.5.2 9.6-1.6 9.8-1.2s-5.9 7.7-5.9 8.2 6.2 7.5 6 7.9m-80.5 0c-.3.4-9.6-1.3-10-1-.5.2-3.5 9-4 9s-3.7-9-4.1-9.2-9.5 1.6-9.8 1.2c-.2-.5 6-7.7 6-8.2s-6.2-7.5-6-8c.3-.3 9.6 1.3 10 1 .5-.2 3.5-9 4-9s3.7 9 4.1 9.3c.4.2 9.5-1.6 9.8-1.2.2.4-5.9 7.7-5.9 8.2s6.1 7.5 5.9 7.9M224 280a48 48 0 0 0 96 0h16a80 80 0 0 1-160 0z" clip-rule="evenodd"/><path fill="var(--flag-palette-mid-grey-3, #acabb1)" d="M252 272h8v64h-8z"/><path fill="var(--flag-palette-bright-red, #d80027)" d="M336 208h-76v-64h-8v64h-76v8h76v56h8v-56h76z"/></svg>

<svg width="512" height="512" viewBox="0 0 512 512" fill="none" xmlns="http://www.w3.org/2000/svg">
<rect x="136" y="512" width="512" height="240" transform="rotate(-90 136 512)" fill="var(--flag-palette-bright-red, #d80027)"/>
<rect x="344" y="512" width="512" height="168" transform="rotate(-90 344 512)" fill="var(--flag-palette-light-blue, #338af3)"/>
<rect y="512" width="512" height="168" transform="rotate(-90 0 512)" fill="var(--flag-palette-green, #6da544)"/>
<path d="M256 144C300.2 144 336 161.9 336 184V272H176V184C176 161.9 211.8 144 256 144Z" fill="var(--flag-palette-white, #eeeeee)"/>
<path fill-rule="evenodd" clip-rule="evenodd" d="M230.5 192.1C230.2 192.5 220.9 190.9 220.5 191.1C220 191.4 217 200.1 216.5 200.1C216 200.1 212.8 191.2 212.4 190.9C212 190.7 202.9 192.5 202.6 192.1C202.4 191.7 208.6 184.4 208.6 183.9C208.6 183.4 202.4 176.4 202.6 176C202.9 175.6 212.2 177.3 212.6 177C213.1 176.8 216.1 168 216.6 168C217.1 168 220.3 177 220.7 177.2C221.1 177.4 230.2 175.6 230.5 176C230.7 176.5 224.6 183.7 224.6 184.2C224.6 184.7 230.7 191.7 230.5 192.2V192.1ZM311 192.1C310.7 192.5 301.3 190.9 300.9 191.1C300.5 191.4 297.5 200.1 297 200.1C296.5 200.1 293.3 191.2 292.8 190.9C292.4 190.7 283.3 192.5 283.1 192.1C282.8 191.7 289 184.4 289 183.9C289 183.4 282.8 176.4 283 176C283.3 175.6 292.7 177.3 293.1 177C293.6 176.8 296.5 168 297.1 168C297.5 168 300.7 177 301.1 177.2C301.6 177.4 310.7 175.6 310.9 176C311.2 176.5 305 183.7 305 184.2C305 184.7 311.2 191.7 311 192.2V192.1ZM311 254.3C310.7 254.7 301.3 253 300.9 253.3C300.5 253.5 297.5 262.3 297 262.3C296.5 262.3 293.3 253.3 292.8 253.1C292.4 252.9 283.3 254.7 283.1 254.3C282.8 253.8 289 246.6 289 246.1C289 245.6 282.8 238.6 283 238.1C283.3 237.8 292.7 239.4 293.1 239.1C293.6 238.9 296.5 230.1 297.1 230.1C297.5 230.1 300.7 239.1 301.1 239.4C301.6 239.6 310.7 237.8 310.9 238.2C311.2 238.6 305 245.9 305 246.4C305 246.9 311.2 253.9 311 254.3ZM230.5 254.3C230.2 254.7 220.9 253 220.5 253.3C220 253.5 217 262.3 216.5 262.3C216 262.3 212.8 253.3 212.4 253.1C212 252.9 202.9 254.7 202.6 254.3C202.4 253.8 208.6 246.6 208.6 246.1C208.6 245.6 202.4 238.6 202.6 238.1C202.9 237.8 212.2 239.4 212.6 239.1C213.1 238.9 216.1 230.1 216.6 230.1C217.1 230.1 220.3 239.1 220.7 239.4C221.1 239.6 230.2 237.8 230.5 238.2C230.7 238.6 224.6 245.9 224.6 246.4C224.6 246.9 230.7 253.9 230.5 254.3ZM224 280C224 292.73 229.057 304.939 238.059 313.941C247.061 322.943 259.27 328 272 328C284.73 328 296.939 322.943 305.941 313.941C314.943 304.939 320 292.73 320 280H336C336 301.217 327.571 321.566 312.569 336.569C297.566 351.571 277.217 360 256 360C234.783 360 214.434 351.571 199.431 336.569C184.429 321.566 176 301.217 176 280H224Z" fill="var(--flag-palette-mid-grey-3, #acabb1)"/>
<path d="M252 272H260V336H252V272Z" fill="var(--flag-palette-mid-grey-3, #acabb1)"/>
<path d="M336 208H260V144C257.334 143.935 254.666 143.935 252 144V208H176V216H252V272H260V216H336V208Z" fill="var(--flag-palette-bright-red, #d80027)"/>
</svg>
